X: 27293
T: Miss Watt
R: reel
M: 4/4
K: Cdorian
f|B2dB FBDF|BdcB cCCA|B2dB FBDg|1 fdcd B/B/B BF:|2 fdcd B/B/B Bg||
fBdB dfbg|fBdB c/c/c cg|fBdB dfbg|fdcd B/B/B Bg|
fBdB dfbg|fBdB c/c/c ca|bgeg fdBd|cbcd B/B/B B||

